packages/icon/src/svg/path.icon.svg

<?xml version="1.0" encoding="UTF-8"?>
<svg width="24px" height="24px" viewBox="0 0 24 24" version="1.1" xmlns="http://www.w3.org/2000/svg" xmlns:xlink="http://www.w3.org/1999/xlink">
    <!-- Generator: Sketch 46.1 (44463) - http://www.bohemiancoding.com/sketch -->
    <title>Icon/path.icon</title>
    <desc>Created with Sketch.</desc>
    <defs>
        <path d="M4.41132031,10 L7.99710674,13.5857864 L7.99710674,22 L6,22 L5.99710674,14.4142136 L3,11.4171068 L3,14 L1,14 L1,8 L7,8 L7,10 L4.41132031,10 Z M21,11.4142136 L18,14.4142136 L18,22 L16,22 L16,13.5857864 L19.5857864,10 L17,10 L17,8 L23,8 L23,14 L21,14 L21,11.4142136 Z M13,5.82578621 L13,22 L11,22 L11,5.83106804 L9.17421379,7.65685425 L7.76000023,6.24264069 L12.0026409,2 L16.2452816,6.24264069 L14.831068,7.65685425 L13,5.82578621 L13,5.82578621 Z" id="path-1"></path>
    </defs>
    <g id="Symbols" stroke="none" stroke-width="1" fill="none" fill-rule="evenodd">
        <g id="Icon/path">
            <mask id="mask-2" fill="white">
                <use xlink:href="#path-1"></use>
            </mask>
            <use id="paths" fill="#000000" xlink:href="#path-1"></use>
            <g id="Color/Neutral/White" mask="url(#mask-2)" fill="#FFFFFF">
                <rect id="222222-Fill" x="0" y="0" width="24" height="24"></rect>
            </g>
        </g>
    </g>
</svg>

<svg viewBox="0 0 24 24" xmlns="http://www.w3.org/2000/svg"><path d="M4.4113 10l3.5858 3.5858V22H6l-.003-7.5858L3 11.4172V14H1V8h6v2H4.4113zM21 11.4142l-3 3V22h-2v-8.4142L19.5858 10H17V8h6v6h-2v-2.5858zm-8-5.5884V22h-2V5.831L9.1742 7.657 7.76 6.2425 12.0026 2l4.2427 4.2426L14.831 7.657 13 5.8257z" /></svg>
